!!!COM: Music21
!!!OTL: mazurka_Pollonessas-8
!!!OMV: mazurka_Pollonessas-8
**kern
*clefG2
*k[f#c#]
*D:
*M3/4
=1
8eL
8f#J
8dL
8c#J
8c#L
8dJ
=
8eL
8f#J
4.e
16eLL
16f#JJ
=
8gL
8aJ
8f#L
8eJ
8dL
8c#J
=
8c#L
8dJ
4d
8c#L
8dJ
=
8eL
8f#J
8dL
8c#J
8c#L
8dJ
=
8eL
8f#J
4.e
16eLL
16f#JJ
!!linebreak:original
=
8gL
8aJ
8f#L
8eJ
8dL
8c#J
=
8c#L
8dJ
4d
16eLL
16f#J
8gJ
=||
*M3/4
8eL
8f#J
8dL
8c#J
8c#L
8dJ
=
8eL
8f#J
4.e
16eLL
16f#JJ
=
8gL
8aJ
8f#L
8eJ
8dL
8c#J
=
8c#L
8dJ
4d
8c#L
8dJ
!!linebreak:original
=
8eL
8f#J
8dL
8c#J
8c#L
8dJ
=
8eL
8f#J
4.e
16eLL
16f#JJ
=
8gL
8aJ
8f#L
8eJ
8dL
8c#J
=
8c#L
8dJ
4d
16eLL
16f#J
8gJ
=||
8f#L
8gJ
4a
4a
=
8bL
8aJ
8aL
8gJ
8gL
8eJ
=
8f#L
8gJ
4a
4a
!!linebreak:original
=
8bL
8aJ
8aL
8gJ
8gL
8eJ
=
12f#L
12e
12dJ
4c#
4d
=
8eL
8f#J
4.e
16eLL
16f#JJ
=
8gL
8aJ
8f#L
8eJ
8dL
8c#J
=
8c#L
8dJ
4d
16eLL
16f#J
8gJ
=||
8f#L
8gJ
4a
4a
=
8bL
8aJ
8aL
8gJ
8gL
8eJ
!!linebreak:original
=
8f#L
8gJ
4a
4a
=
8bL
8aJ
8aL
8gJ
8gL
8eJ
=
12f#L
12e
12dJ
4c#
4d
=
8eL
8f#J
4.e
16eLL
16f#JJ
=
8gL
8aJ
8f#L
8eJ
8dL
8c#J
=
8c#L
8dJ
4d
8c#L
8dJ
=||
*-
